X:1
T:Only a Sinner
T:Only a Sinner
T:Daniel Brink Towner
T:James Martin Gray, 1905
T:Public Domain Courtesy of the Cyber Hymnal™
C:Daniel Brink Towner
Z:Public Domain
Z:Courtesy of the Cyber Hymnal™
%%score ( 1 2 ) 3
L:1/8
Q:1/4=110
M:4/4
K:C
V:1 treble 
V:2 treble 
V:3 bass 
V:1
 [EG]2 [CE]>[DF] [EG] [Ec]2 [GB] | [FA]2 [Ac]>[FA] [EG]4 | [DF]2 D>[DE] [DF] [FB]2 [FA] | %3
w: 1.~Naught have I got- ten but|what I re- ceived;|Grace hath be- stowed it since|
w: 2.~Once I was fool- ish, and|sin ruled my heart,|Caus- ing my foot- steps from|
w: 3.~Tears un- a- vail- ing, no|mer- it had I;|Mer- cy had saved me, or|
w: 4.~Suf- fer a sin- ner whose|heart o- ver- flows,|Lov- ing his Sav- ior to|
 [FG]2 [FA]>[DF] [CE]4 | [EG]2 [CE]>[DF] [EG] [Ec]3 | [Fd]2 [FA]>[FA] [^Fd]3 [Fc] | %6
w: I have be- lieved;|Boast- ing ex- clud- ed,|pride I a- base; I’m|
w: God to de- part;|Je- sus hath found me,|hap- py my case; I|
w: else I must die;|Sin had a- larmed me|fear- ing God’s face; But|
w: tell what he knows;|Once more to tell it|would I em- brace— I’m|
 [GB]2 [FB]>[FA] [EG] [Gc]3 | [Ad]2 [GB]2 [Gc]4 ||"^Refrain" [EG]2 [EG]>[EG] [FA] [EG]3 | %9
w: on- ly a sin- ner,|saved by grace!||
w: now am a sin- ner,|saved by grace!||
w: now I’m a sin- ner|saved by grace!||
w: on- ly a sin- ner|saved by grace!||
 C2 [B,D]2 [CE]4 | [EG]2 [Ec]>[Ec] [Fd] [Ec]3 | [Ec]2 [Ad]2 [^Ge]4 | %12
w: |||
w: |||
w: |||
w: |||
 [Ge]2 [Ge]>[Fd] [Fd] [Ec]2 [Ec] | [Ac]2 [Ac]>[FA] [FA] [EG]2 [EG] | [FA]2 [Ac]>[FA] [EG] [Gc]3 | %15
w: |||
w: |||
w: |||
w: |||
 [Ad]2 [GB]2 [Ec]4 |] %16
w: |
w: |
w: |
w: |
V:2
 x8 | x8 | x8 | x8 | x8 | x8 | x8 | x8 || x8 | C2 x6 | x8 | x8 | x8 | x8 | x8 | x8 |] %16
V:3
 [C,G,]2 [C,G,]>[C,G,] [C,G,] [C,G,]2 [E,C] | [F,C]2 [F,C]>[F,C] [C,C]4 | %2
w: ~ ~ ~ ~ ~ ~|~ ~ ~ ~|
 [G,B,]2 [G,B,]>[G,C] [G,D] [G,D]2 [G,B,] | [G,B,]2 [G,B,]>G, [C,G,]4 | %4
w: ~ ~ ~ ~ ~ ~|~ ~ ~ ~|
 [C,C]2 [C,G,]>[C,G,] [C,C] [C,C]3 | [F,A,]2 [F,D]>[F,D] [D,A,]3 [D,A,] | %6
w: ~ ~ ~ ~ ~|~ ~ ~ ~ ~|
 G,2 [G,D]>[G,B,] [C,C] [C,E]3 | [F,F]2 [G,D]2 [C,E]4 || [C,C]2 [C,C]>[C,C] [C,C] [C,C]3 | %9
w: ~ ~ ~ ~ ~|~ ~ ~|On- ly a sin- ner,|
 [E,G,]2 [D,G,]2 [C,G,]4 | [C,G,]2 [C,G,]>[C,G,] [C,G,] [C,G,]3 | A,2 [F,A,]2 [E,B,]4 | %12
w: saved by grace!|On- ly a sin- ner,|saved by grace!|
 [C,C]2 [C,C]>[C,C] [C,G,] [C,G,]2 [C,G,] | F,2 F,>[F,C] [C,C] [C,C]2 [C,C] | %14
w: This is my sto- ry, to|God be the glo- ry— I’m|
 [F,C]2 [F,C]>[F,C] [C,C] [C,E]3 | [F,F]2 [G,D]2 [C,C]4 |] %16
w: on- ly a sin- ner,|saved by grace!|

